X:532321 F:http://www.vwml.org/record/HAM/5/32/32%%VWML:HAM-5-32-32-0 T:James Harris
S:Mrs Marina Russell, Upwey coll. HED Hammond
O:England
A:Dorset
N:Transcribed from HAM-05-081.gif
F:HAM-05-32-31
Z:EFDSS;PJHeadford
M:C
L:1/4
Q:2/4=50
K:C
A|A(G/F/) E(D/E/)|(F2E)E|D3A|d>efe/d/&d>efe|c2de&d2A/B/c|d3A/ A/&d3x| d>e(fe)|d2AG|F2GG|(dc)Bc|A>GEF|D3||
